svgs/openreads.svg

<svg xmlns="http://www.w3.org/2000/svg" viewBox="0 0 192 192"><path d="M100.301 42.801a4.392 4.392 0 0 0-3.048 1.343A4.482 4.482 0 0 0 96 47.255v78.167c0 1.161.45 2.278 1.253 3.11a4.397 4.397 0 0 0 3.048 1.344h62.352c.775 0 1.535-.206 2.206-.597a4.43 4.43 0 0 0 1.615-1.63 4.494 4.494 0 0 0 .591-2.227V47.143a4.477 4.477 0 0 0-1.331-3.078 4.393 4.393 0 0 0-3.081-1.265h-4.411v55.275l-8.515-8.708-8.558 8.708V42.801Zm15.016 44.539h19.014m-19.014 26.012h41.491m-41.491-13.03h41.491m-41.491-24.12h19.014m-19.014-11.135h19.014m-19.014-11.133h19.014" fill="none" stroke="#000" stroke-width="8" stroke-linecap="round" stroke-linejoin="round"/><path d="M29.165 42.801c-.746 0-1.48.198-2.126.575a4.269 4.269 0 0 0-1.557 1.572 4.325 4.325 0 0 0-.57 2.146v78.329c0 1.161.45 2.278 1.254 3.11a4.396 4.396 0 0 0 3.048 1.343h62.424c.774 0 1.535-.206 2.206-.597a4.435 4.435 0 0 0 1.614-1.63 4.494 4.494 0 0 0 .591-2.227V47.143a4.475 4.475 0 0 0-1.33-3.077 4.394 4.394 0 0 0-3.081-1.265ZM42.096 87.34h42.542m-42.542 26.012h41.491m-41.491-13.03h41.491m-17.963-24.12h19.014M65.624 65.067h19.014M65.624 53.934h19.014" fill="none" stroke="#000" stroke-width="8" stroke-linecap="round" stroke-linejoin="round"/><path d="M35.694 51.652s-1.405.665-1.404 1.454v25.517c-.001.379.146.744.409 1.015.262.272.619.429.995.439h19.659c.382 0 .748-.154 1.018-.426.27-.273.422-.643.422-1.028V53.07a1.46 1.46 0 0 0-.434-1.005 1.433 1.433 0 0 0-1.006-.413Z" fill="none" stroke="#000" stroke-width="8" stroke-linecap="round" stroke-linejoin="round"/><path d="M24.456 58.187H16.5v75.9a7.239 7.239 0 0 0 2.566 4.805 7.109 7.109 0 0 0 5.166 1.616h65.691L96 149.2l6.055-8.692h65.906a7.071 7.071 0 0 0 5.053-1.676 7.198 7.198 0 0 0 2.486-4.746v-75.9h-8.104" fill="none" stroke="#000" stroke-width="8" stroke-linecap="round" stroke-linejoin="round"/></svg>

<svg
    xmlns="http://www.w3.org/2000/svg"
    viewBox="0 0 192 192"
    id="vector">
    <path
        id="path"
        d="M 100.301 42.801 C 99.151 42.83 98.056 43.312 97.253 44.144 C 96.45 44.976 96 46.093 96 47.255 L 96 125.422 C 96 126.583 96.45 127.7 97.253 128.532 C 98.056 129.364 99.151 129.846 100.301 129.876 L 162.653 129.876 C 163.428 129.876 164.188 129.67 164.859 129.279 C 165.53 128.888 166.087 128.326 166.474 127.649 C 166.861 126.971 167.065 126.203 167.065 125.422 L 167.065 47.143 C 167.036 45.981 166.558 44.876 165.734 44.065 C 164.91 43.254 163.804 42.8 162.653 42.8 L 158.242 42.8 L 158.242 98.075 L 149.727 89.367 L 141.169 98.075 L 141.169 42.801 Z M 115.317 87.34 L 134.331 87.34 M 115.317 113.352 L 156.808 113.352 M 115.317 100.322 L 156.808 100.322 M 115.317 76.202 L 134.331 76.202 M 115.317 65.067 L 134.331 65.067 M 115.317 53.934 L 134.331 53.934"
        fill="none"
        stroke="#000000"
        stroke-width="8"
        stroke-linecap="round"
        stroke-linejoin="round"/>
    <path
        id="path_1"
        d="M 29.165 42.801 C 28.419 42.801 27.685 42.999 27.039 43.376 C 26.392 43.753 25.855 44.295 25.482 44.948 C 25.109 45.6 24.912 46.341 24.912 47.094 L 24.912 125.423 C 24.912 126.584 25.362 127.701 26.166 128.533 C 26.969 129.364 28.064 129.847 29.214 129.876 L 91.638 129.876 C 92.412 129.876 93.173 129.67 93.844 129.279 C 94.514 128.888 95.071 128.326 95.458 127.649 C 95.845 126.971 96.049 126.203 96.049 125.422 L 96.049 47.143 C 96.02 45.982 95.543 44.877 94.719 44.066 C 93.895 43.255 92.788 42.801 91.638 42.801 Z M 42.096 87.34 L 84.638 87.34 M 42.096 113.352 L 83.587 113.352 M 42.096 100.322 L 83.587 100.322 M 65.624 76.202 L 84.638 76.202 M 65.624 65.067 L 84.638 65.067 M 65.624 53.934 L 84.638 53.934"
        fill="none"
        stroke="#000000"
        stroke-width="8"
        stroke-linecap="round"
        stroke-linejoin="round"/>
    <path
        id="path_2"
        d="M 35.694 51.652 C 35.694 51.652 34.289 52.317 34.29 53.106 L 34.29 78.623 C 34.289 79.002 34.436 79.367 34.699 79.638 C 34.961 79.91 35.318 80.067 35.694 80.077 L 55.353 80.077 C 55.735 80.077 56.101 79.923 56.371 79.651 C 56.641 79.378 56.793 79.008 56.793 78.623 L 56.793 53.07 C 56.784 52.691 56.628 52.33 56.359 52.065 C 56.09 51.8 55.729 51.652 55.353 51.652 Z"
        fill="none"
        stroke="#000000"
        stroke-width="8"
        stroke-linecap="round"
        stroke-linejoin="round"/>
    <path
        id="path_3"
        d="M 24.456 58.187 L 16.5 58.187 L 16.5 134.087 C 16.699 135.965 17.621 137.692 19.066 138.892 C 20.512 140.092 22.368 140.673 24.232 140.508 L 89.923 140.508 L 96 149.2 L 102.055 140.508 L 167.961 140.508 C 169.796 140.63 171.608 140.029 173.014 138.832 C 174.419 137.635 175.311 135.933 175.5 134.086 L 175.5 58.186 L 167.396 58.186"
        fill="none"
        stroke="#000000"
        stroke-width="8"
        stroke-linecap="round"
        stroke-linejoin="round"/>
</svg>
